src/assets/IconKeyCode.svg

<svg width="564" height="564" viewBox="0 0 564 564" fill="none" xmlns="http://www.w3.org/2000/svg"><circle cx="282" cy="282" r="282" fill="url(#paint0_linear)"/><path d="M426.216 275.237c9.412 0 17.043-7.63 17.043-17.043 0-9.412-7.631-17.043-17.043-17.043-9.413 0-17.043 7.631-17.043 17.043 0 9.413 7.63 17.043 17.043 17.043zm75.531-3.379c-5.657-14.406-16.033-35.195-33.334-52.414-17.24-17.16-37.809-27.239-52.026-32.673-15.637-5.977-33.406-2.209-45.268 9.596l-41.584 41.39c-12.356 12.297-15.917 31.219-8.862 47.086a195.517 195.517 0 007.06 14.292l-91.215 91.215a10.69 10.69 0 00-3.131 7.559v46.594c0 5.904 4.785 10.689 10.689 10.689h46.594c5.904 0 10.69-4.785 10.69-10.689v-18.961l18.961-.001c5.903 0 10.689-4.785 10.689-10.689v-18.961h18.961c5.904 0 10.69-4.786 10.69-10.689 0-5.904-4.786-10.69-10.69-10.69h-29.65c-5.904 0-10.69 4.786-10.69 10.69v18.96l-18.961.001c-5.904 0-10.689 4.785-10.689 10.689v18.961h-25.215v-31.476l93.876-93.876a10.69 10.69 0 001.581-13.103c-3.668-6.045-7.037-12.505-10.014-19.201-3.477-7.82-1.706-17.163 4.409-23.249l41.583-41.388c5.909-5.881 14.762-7.756 22.555-4.779 12.288 4.697 29.994 13.341 44.576 27.856 14.671 14.602 23.605 32.57 28.516 45.075a20.926 20.926 0 01-4.724 22.494l-42.086 41.889c-6.1 6.07-15.204 7.846-23.196 4.522a137.46 137.46 0 01-19.047-9.718c-5.031-3.088-11.614-1.513-14.702 3.519-3.088 5.031-1.513 11.614 3.518 14.702a158.79 158.79 0 0022.02 11.236c15.997 6.654 34.245 3.078 46.489-9.108l42.085-41.888a42.294 42.294 0 009.542-45.462z" fill="#fff" stroke="#fff" stroke-width=".2"/><path fill-rule="evenodd" clip-rule="evenodd" d="M203.164 396.893c-45.051-22.772-76.014-69.511-76.014-123.344 0-76.15 61.955-138.105 138.105-138.105 31.556 0 61.2 10.304 85.736 29.796 5.951 4.751 14.653 3.756 19.404-2.215 4.751-5.968 3.756-14.66-2.219-19.404-29.047-23.086-65.599-35.798-102.921-35.798-91.376 0-165.726 74.35-165.726 165.726 0 64.184 36.683 119.966 90.182 147.483 3.333 1.016 11.438 2.245 15.978-7.701 4.83-10.579-.93-15.365-2.525-16.438z" fill="url(#paint1_linear)"/><path d="M268.168 163.065c7.623 0 13.81 6.188 13.81 13.811v96.673c0 7.624-6.187 13.811-13.81 13.811h-69.053c-7.623 0-13.81-6.187-13.81-13.811 0-7.623 6.187-13.81 13.81-13.81h55.242v-82.863c0-7.623 6.187-13.811 13.811-13.811z" fill="url(#paint2_linear)"/><defs><linearGradient id="paint0_linear" x1="872.438" y1="-253.8" x2="-22.336" y2="423.995" gradientUnits="userSpaceOnUse"><stop stop-color="#FFB36D"/><stop offset="1" stop-color="#F88"/></linearGradient><linearGradient id="paint1_linear" x1="-54.295" y1="269.068" x2="264.052" y2="539.419" gradientUnits="userSpaceOnUse"><stop stop-color="#fff" stop-opacity=".99"/><stop offset="1" stop-color="#fff" stop-opacity=".215"/></linearGradient><linearGradient id="paint2_linear" x1="182.471" y1="211.5" x2="261.946" y2="339.5" gradientUnits="userSpaceOnUse"><stop stop-color="#fff" stop-opacity=".85"/><stop offset="1" stop-color="#fff" stop-opacity=".215"/></linearGradient></defs></svg>

<svg width="564" height="564" viewBox="0 0 564 564" fill="none" xmlns="http://www.w3.org/2000/svg">
<circle cx="282" cy="282" r="282" fill="url(#paint0_linear)"/>
<path d="M426.216 275.237C435.628 275.237 443.259 267.607 443.259 258.194C443.259 248.782 435.628 241.151 426.216 241.151C416.803 241.151 409.173 248.782 409.173 258.194C409.173 267.607 416.803 275.237 426.216 275.237ZM501.747 271.858C496.09 257.452 485.714 236.663 468.413 219.444C451.173 202.284 430.604 192.205 416.387 186.771C400.75 180.794 382.981 184.562 371.119 196.367L329.535 237.757C317.179 250.054 313.618 268.976 320.673 284.843C322.846 289.732 325.209 294.514 327.733 299.135L236.518 390.35C234.513 392.355 233.387 395.074 233.387 397.909V444.503C233.387 450.407 238.172 455.192 244.076 455.192H290.67C296.574 455.192 301.36 450.407 301.36 444.503V425.542L320.321 425.541C326.224 425.541 331.01 420.756 331.01 414.852V395.891H349.971C355.875 395.891 360.661 391.105 360.661 385.202C360.661 379.298 355.875 374.512 349.971 374.512H320.321C314.417 374.512 309.631 379.298 309.631 385.202V404.162L290.67 404.163C284.766 404.163 279.981 408.948 279.981 414.852V433.813H254.766V402.337L348.642 308.461C352.124 304.979 352.777 299.568 350.223 295.358C346.555 289.313 343.186 282.853 340.209 276.157C336.732 268.337 338.503 258.994 344.618 252.908L386.201 211.52C392.11 205.639 400.963 203.764 408.756 206.741C421.044 211.438 438.75 220.082 453.332 234.597C468.003 249.199 476.937 267.167 481.848 279.672C484.9 287.443 483.046 296.273 477.124 302.166L435.038 344.055C428.938 350.125 419.834 351.901 411.842 348.577C405.224 345.824 398.816 342.554 392.795 338.859C387.764 335.771 381.181 337.346 378.093 342.378C375.005 347.409 376.58 353.992 381.611 357.08C388.579 361.357 395.988 365.137 403.631 368.316C419.628 374.97 437.876 371.394 450.12 359.208L492.205 317.32C504.171 305.411 507.916 287.566 501.747 271.858Z" fill="white" stroke="white" stroke-width="0.2"/>
<path fill-rule="evenodd" clip-rule="evenodd" d="M203.164 396.893C158.113 374.121 127.15 327.382 127.15 273.549C127.15 197.399 189.105 135.444 265.255 135.444C296.811 135.444 326.455 145.748 350.991 165.24C356.942 169.991 365.644 168.996 370.395 163.025C375.146 157.057 374.151 148.365 368.176 143.621C339.129 120.535 302.577 107.823 265.255 107.823C173.879 107.823 99.5294 182.173 99.5294 273.549C99.5294 337.733 136.212 393.515 189.711 421.032C193.044 422.048 201.149 423.277 205.689 413.331C210.519 402.752 204.759 397.966 203.164 396.893Z" fill="url(#paint1_linear)"/>
<path d="M268.168 163.065C275.791 163.065 281.978 169.253 281.978 176.876V273.549C281.978 281.173 275.791 287.36 268.168 287.36H199.115C191.492 287.36 185.305 281.173 185.305 273.549C185.305 265.926 191.492 259.739 199.115 259.739H254.357V176.876C254.357 169.253 260.544 163.065 268.168 163.065Z" fill="url(#paint2_linear)"/>
<defs>
<linearGradient id="paint0_linear" x1="872.438" y1="-253.8" x2="-22.3356" y2="423.995" gradientUnits="userSpaceOnUse">
<stop stop-color="#FFB36D"/>
<stop offset="1" stop-color="#FF8888"/>
</linearGradient>
<linearGradient id="paint1_linear" x1="-54.295" y1="269.068" x2="264.052" y2="539.419" gradientUnits="userSpaceOnUse">
<stop stop-color="white" stop-opacity="0.99"/>
<stop offset="1" stop-color="white" stop-opacity="0.215117"/>
</linearGradient>
<linearGradient id="paint2_linear" x1="182.471" y1="211.5" x2="261.946" y2="339.5" gradientUnits="userSpaceOnUse">
<stop stop-color="white" stop-opacity="0.85"/>
<stop offset="1" stop-color="white" stop-opacity="0.215117"/>
</linearGradient>
</defs>
</svg>
